Yaru++/mimetypes/16/text-x-java-source.svg

<svg id="svg15" height="16" width="16" xmlns="http://www.w3.org/2000/svg">
  <g fill="#808080">
    <path id="path11" d="m4.9941406 0c-1.2582.0145-2.1788906-.03060437-2.9316406.38476562-.37637.20766001-.6732306.55938688-.8378906.99804688-.16467.43867-.2246094.9595775-.2246094 1.6171875v10c0 .65761.059899 1.178578.2246094 1.617188.16468.43861.4615306.788523.8378906.996093.75272.41514 1.6735406.371649 2.9316406.386719h.00195 5.0058592.0039c1.25819-.0145 2.178891.0306 2.931641-.384766.37637-.20766.673231-.559387.837891-.998046.1645392-.438671.2246182-.959578.2246182-1.617188v-10c0-.65761-.059899-1.1785775-.224609-1.6171875-.16468-.43861-.461531-.78852375-.837891-.99609375-.75272-.41513-1.673551-.37164875-2.931641-.38671875h-.002-5.0058591zm.0058594 1h5c1.25862.0152 2.089098.059899 2.455078.2617188.18342.1011599.287226.2128562.384766.4726562.09741.25979.160156.673235.160156 1.265625v10c0 .59239-.0626 1.005725-.160156 1.265625-.0976.25991-.201356.371466-.384766.472656-.36596.20192-1.196558.247009-2.455078.261719h-4.9941406-.0058594c-1.25863-.0152-2.0890981-.059899-2.4550781-.261719-.18342-.10116-.2872257-.212856-.3847657-.472656-.09755-.25979-.1601562-.673235-.1601562-1.265625v-10c0-.59239.0625962-1.005725.1601562-1.265625.0976001-.25991.2033088-.3714662.3867188-.4726562.36595-.20191 1.194605-.2470188 2.453125-.2617188z"/>
    <path id="path1127" clip-rule="evenodd" d="m6.4019533.49159479c.133047.52415101-.469298.68246201-.686692 1.00889201-.148043.222408.07267.4614.373573.732865-.11734-.265258-.515282-.497289.000116-.904415.642755-.50733001.312947-.83734201.312947-.83734201zm.397657.64849101c.000008 0-1.086855.271376-.567794.869508.153228.176389-.0402.334988-.0402.334988s.388847-.200689.210304-.45214c-.166817-.234382-.294692-.35082.397686-.752356zm.192475 1.068407c-.03819.000114-.07874.0068-.120335.02138-.03335.01183-.05085.03925-.05085.03925s.02109-.0085.0681-.01831c.19225-.04006.467713.257369-.127978.566828-.0027.0074-.01191.01564-.01191.01564.708431-.186233.553932-.625372.242972-.624792zm-1.276356.0302c-.04666-.0013-.248395.0019-.489452.118535-.325911.157586.806002.229377 1.392039.07524.06093-.04158.145085-.07767.145085-.07767s-.239688.04285-.478518.0629c-.292318.02453-.605887.02936-.763288.0083-.372671-.04982.204293-.186882.204293-.186882s-.0035-.000265-.01016-.000265zm-.124181.360562c-.537615.178429.299282.380926 1.050659.161142-.07983-.02814-.130524-.07964-.130524-.07964-.367371.0707-.579573.06844-.848355.0407-.207801-.02148-.07178-.122194-.07178-.122194zm.07599.347553c-.488159.136399.297004.41814.918559.151842-.101799-.03956-.174815-.08524-.174815-.08524-.277174.0524-.40575.05652-.657349.02779-.207642-.02381-.0864-.0944-.0864-.0944zm-.339055.23043c-.219218.0068-.647935.20387-.255871.267496 1.26718.205399 2.309887-.09251 1.981237-.240812 0 0 .08977.07402-.09885.131246-.358678.108643-1.493147.14141-1.808248.0043-.113191-.0493.09917-.117641.165986-.132071.06967-.01508.109456-.01233.109456-.01233-.01968-.01386-.05311-.01913-.0937-.01789zm1.926535.188379s-.03994.102556-.472486.183927c-.487973.09187-1.089968.08116-1.446876.02222 0 0 .0731.06052.448814.0847.571662.03655 1.449766-.02032 1.470548-.290861z" fill-rule="evenodd" stroke-width="1.014829" transform="matrix(3.7797136 0 0 3.7797136 -15.49668496811 .1419374904)"/>
  </g>
</svg>

<?xml version="1.0" encoding="UTF-8" standalone="no"?>
<svg
   xmlns:osb="http://www.openswatchbook.org/uri/2009/osb"
   xmlns:dc="http://purl.org/dc/elements/1.1/"
   xmlns:cc="http://creativecommons.org/ns#"
   xmlns:rdf="http://www.w3.org/1999/02/22-rdf-syntax-ns#"
   xmlns:svg="http://www.w3.org/2000/svg"
   xmlns="http://www.w3.org/2000/svg"
   xmlns:sodipodi="http://sodipodi.sourceforge.net/DTD/sodipodi-0.dtd"
   xmlns:inkscape="http://www.inkscape.org/namespaces/inkscape"
   width="16"
   height="16"
   version="1.1"
   id="svg15"
   sodipodi:docname="text-x-changelog.svg"
   inkscape:version="0.92.4 (5da689c313, 2019-01-14)">
  <metadata
     id="metadata19">
    <rdf:RDF>
      <cc:Work
         rdf:about="">
        <dc:format>image/svg+xml</dc:format>
        <dc:type
           rdf:resource="http://purl.org/dc/dcmitype/StillImage" />
        <dc:title />
      </cc:Work>
    </rdf:RDF>
  </metadata>
  <sodipodi:namedview
     pagecolor="#ffffff"
     bordercolor="#666666"
     borderopacity="1"
     objecttolerance="10"
     gridtolerance="10"
     guidetolerance="10"
     inkscape:pageopacity="0"
     inkscape:pageshadow="2"
     inkscape:window-width="1468"
     inkscape:window-height="1009"
     id="namedview17"
     showgrid="false"
     inkscape:zoom="30.41459"
     inkscape:cx="3.1939956"
     inkscape:cy="8.1286101"
     inkscape:window-x="0"
     inkscape:window-y="27"
     inkscape:window-maximized="0"
     inkscape:current-layer="g910" />
  <defs
     id="defs9">
    <linearGradient
       id="linearGradient5606"
       osb:paint="solid">
      <stop
         id="stop5608"
         offset="0"
         style="stop-color:#000000" />
    </linearGradient>
    <linearGradient
       id="linearGradient4526"
       osb:paint="solid">
      <stop
         id="stop4528"
         offset="0"
         style="stop-color:#ffffff" />
    </linearGradient>
    <linearGradient
       id="linearGradient3600-4"
       osb:paint="gradient">
      <stop
         id="stop3602-7"
         offset="0"
         style="stop-color:#f4f4f4" />
      <stop
         id="stop3604-6"
         offset="1"
         style="stop-color:#dbdbdb" />
    </linearGradient>
    <linearGradient
       gradientUnits="userSpaceOnUse"
       gradientTransform="matrix(0,-0.11988932,0.11988589,0,0.36277965,292.5483)"
       y2="119.093"
       y1="401.58401"
       x2="-35.310001"
       x1="529.65503"
       id="linearGradient4226">
      <stop
         id="stop2"
         offset="0"
         style="stop-color:#f2f2f2" />
      <stop
         id="stop4"
         offset="1"
         style="stop-color:#f9f9f9" />
    </linearGradient>
    <linearGradient
       gradientUnits="userSpaceOnUse"
       y2="488"
       y1="88"
       x2="488"
       x1="88"
       id="linearGradient4358">
      <stop
         id="stop7"
         offset="0"
         style="stop-color:#000000;stop-opacity:.58823532" />
      <stop
         id="stop9"
         offset=".88"
         style="stop-color:#000000;stop-opacity:0" />
      <stop
         id="stop11"
         offset="1"
         style="stop-color:#000000" />
    </linearGradient>
    <filter
       style="color-interpolation-filters:sRGB"
       y="-0.0099999998"
       x="-0.0099999998"
       height="1.022"
       width="1.026"
       id="filter4346">
      <feGaussianBlur
         id="feGaussianBlur14"
         stdDeviation="2.12" />
    </filter>
    <linearGradient
       gradientUnits="userSpaceOnUse"
       gradientTransform="matrix(0,-0.11988932,0.11988589,0,0.3628473,63.28165)"
       y2="119.093"
       y1="401.58401"
       x2="-35.310001"
       x1="529.65503"
       id="linearGradient4226-3">
      <stop
         id="stop2-6"
         offset="0"
         style="stop-color:#f2f2f2" />
      <stop
         id="stop4-7"
         offset="1"
         style="stop-color:#f9f9f9" />
    </linearGradient>
    <clipPath
       id="clipPath983"
       clipPathUnits="userSpaceOnUse">
      <path
         style="color:#000000;display:inline;overflow:visible;visibility:visible;opacity:1;fill:#46a926;fill-opacity:1;fill-rule:nonzero;stroke:none;stroke-width:2;stroke-miterlimit:4;stroke-dasharray:none;stroke-opacity:1;marker:none;enable-background:accumulate"
         d="m 325.09646,237 c -2.80769,0 -3.10979,0.28839 -3.09603,3.10176 V 244 v 3.89824 c -0.0138,2.81337 0.28834,3.10176 3.09603,3.10176 h 5.8075 C 333.71166,251 334,250.71165 334,247.89824 V 244 240.10176 C 334,237.28836 333.71165,237 330.90396,237 Z"
         id="path985"
         inkscape:connector-curvature="0"
         sodipodi:nodetypes="scccssscsss" />
    </clipPath>
    <clipPath
       id="clipPath983-3"
       clipPathUnits="userSpaceOnUse">
      <path
         style="color:#000000;display:inline;overflow:visible;visibility:visible;opacity:1;fill:#46a926;fill-opacity:1;fill-rule:nonzero;stroke:none;stroke-width:2;stroke-miterlimit:4;stroke-dasharray:none;stroke-opacity:1;marker:none;enable-background:accumulate"
         d="m 325.09646,237 c -2.80769,0 -3.10979,0.28839 -3.09603,3.10176 V 244 v 3.89824 c -0.0138,2.81337 0.28834,3.10176 3.09603,3.10176 h 5.8075 C 333.71166,251 334,250.71165 334,247.89824 V 244 240.10176 C 334,237.28836 333.71165,237 330.90396,237 Z"
         id="path985-6"
         inkscape:connector-curvature="0"
         sodipodi:nodetypes="scccssscsss" />
    </clipPath>
    <linearGradient
       gradientUnits="userSpaceOnUse"
       gradientTransform="matrix(0,-0.11988932,0.11988589,0,0.36277965,292.54831)"
       y2="119.093"
       y1="401.58401"
       x2="-35.310001"
       x1="529.65503"
       id="linearGradient4226-36">
      <stop
         id="stop2-7"
         offset="0"
         style="stop-color:#f2f2f2" />
      <stop
         id="stop4-5"
         offset="1"
         style="stop-color:#f9f9f9" />
    </linearGradient>
    <filter
       style="color-interpolation-filters:sRGB"
       y="-0.0099999998"
       x="-0.0099999998"
       height="1.022"
       width="1.026"
       id="filter4346-2">
      <feGaussianBlur
         id="feGaussianBlur14-9"
         stdDeviation="2.12" />
    </filter>
    <clipPath
       id="clipPath983-1"
       clipPathUnits="userSpaceOnUse">
      <path
         style="color:#000000;display:inline;overflow:visible;visibility:visible;opacity:1;fill:#46a926;fill-opacity:1;fill-rule:nonzero;stroke:none;stroke-width:2;stroke-miterlimit:4;stroke-dasharray:none;stroke-opacity:1;marker:none;enable-background:accumulate"
         d="m 325.09646,237 c -2.80769,0 -3.10979,0.28839 -3.09603,3.10176 V 244 v 3.89824 c -0.0138,2.81337 0.28834,3.10176 3.09603,3.10176 h 5.8075 C 333.71166,251 334,250.71165 334,247.89824 V 244 240.10176 C 334,237.28836 333.71165,237 330.90396,237 Z"
         id="path985-2"
         inkscape:connector-curvature="0"
         sodipodi:nodetypes="scccssscsss" />
    </clipPath>
  </defs>
  <g
     transform="translate(-512.00004,-160)"
     id="g13">
    <path
       style="fill:#808080"
       d="M 4.9941406,0 C 3.7359406,0.0145 2.81525,-0.03060437 2.0625,0.38476562 1.68613,0.59242563 1.3892694,0.9441525 1.2246094,1.3828125 1.0599394,1.8214825 1,2.34239 1,3 v 10 c 0,0.65761 0.059899,1.178578 0.2246094,1.617188 0.16468,0.43861 0.4615306,0.788523 0.8378906,0.996093 C 2.81522,16.028421 3.7360406,15.98493 4.9941406,16 h 0.00195 5.0058592 0.0039 c 1.25819,-0.0145 2.178891,0.0306 2.931641,-0.384766 0.37637,-0.20766 0.673231,-0.559387 0.837891,-0.998046 C 13.939921,14.178517 14,13.65761 14,13 V 3 C 14,2.34239 13.940101,1.8214225 13.775391,1.3828125 13.610711,0.9442025 13.31386,0.59428875 12.9375,0.38671875 12.18478,-0.02841125 11.263949,0.01507 10.005859,0 h -0.002 -5.0058591 z M 5,1 h 5 c 1.25862,0.0152 2.089098,0.059899 2.455078,0.2617188 0.18342,0.1011599 0.287226,0.2128562 0.384766,0.4726562 C 12.937254,1.994165 13,2.40761 13,3 v 10 c 0,0.59239 -0.0626,1.005725 -0.160156,1.265625 -0.0976,0.25991 -0.201356,0.371466 -0.384766,0.472656 C 12.089118,14.940201 11.25852,14.98529 10,15 H 5.0058594 5 C 3.74137,14.9848 2.9109019,14.940101 2.5449219,14.738281 2.3615019,14.637121 2.2576962,14.525425 2.1601562,14.265625 2.0626062,14.005835 2,13.59239 2,13 V 3 C 2,2.40761 2.0625962,1.994275 2.1601562,1.734375 2.2577563,1.474465 2.363465,1.3629088 2.546875,1.2617188 2.912825,1.0598088 3.74148,1.0147 5,1 Z"
       transform="translate(512.00004,160)"
       id="path11"
       inkscape:connector-curvature="0"
       sodipodi:nodetypes="cccsscsccccccssccccccccccsscccccccssccc" />
    <g
       id="g850"
       transform="translate(499.72882,150.07621)">
      <g
         transform="translate(-713.00021,207.00006)"
         style="display:inline"
         label="status"
         id="layer9" />
      <g
         transform="translate(-472.00001,-159.99994)"
         style="display:inline"
         id="layer2" />
      <g
         transform="translate(-472.00001,-159.99994)"
         style="display:inline"
         id="layer4" />
      <g
         transform="translate(-472.00001,-159.99994)"
         style="display:inline"
         id="g1812" />
      <g
         transform="translate(-472.00001,-159.99994)"
         style="display:inline"
         id="g6217" />
      <g
         transform="translate(-472.00001,-159.99994)"
         style="display:inline"
         id="layer3" />
      <g
         transform="translate(-485.49154,-151.79655)"
         style="display:inline"
         id="g1833">
        <g
           id="g906"
           transform="matrix(3.7797136,0,0,3.7797136,475.3218,159.68644)">
          <g
             style="color:#bebebe;display:inline;fill:#999999;stroke-width:2.5999999;enable-background:new"
             transform="matrix(0.10175781,0,0,0.10175781,-62.312496,-52.820903)"
             id="g3753" />
          <g
             id="g910"
             transform="translate(1.8372489,0.57566197)">
            <path
               id="path1127"
               d="m 6.4019533,0.49159479 c 0.133047,0.52415101 -0.469298,0.68246201 -0.686692,1.00889201 -0.148043,0.222408 0.07267,0.4614 0.373573,0.732865 -0.11734,-0.265258 -0.515282,-0.497289 1.16e-4,-0.904415 0.642755,-0.50733001 0.312947,-0.83734201 0.312947,-0.83734201 z m 0.397657,0.64849101 c 8e-6,0 -1.086855,0.271376 -0.567794,0.869508 0.153228,0.176389 -0.0402,0.334988 -0.0402,0.334988 0,0 0.388847,-0.200689 0.210304,-0.45214 -0.166817,-0.234382 -0.294692,-0.35082 0.397686,-0.752356 z m 0.192475,1.068407 c -0.03819,1.14e-4 -0.07874,0.0068 -0.120335,0.02138 -0.03335,0.01183 -0.05085,0.03925 -0.05085,0.03925 0,0 0.02109,-0.0085 0.0681,-0.01831 0.19225,-0.04006 0.467713,0.257369 -0.127978,0.566828 -0.0027,0.0074 -0.01191,0.01564 -0.01191,0.01564 0.708431,-0.186233 0.553932,-0.625372 0.242972,-0.624792 z m -1.276356,0.0302 c -0.04666,-0.0013 -0.248395,0.0019 -0.489452,0.118535 -0.325911,0.157586 0.806002,0.229377 1.392039,0.07524 0.06093,-0.04158 0.145085,-0.07767 0.145085,-0.07767 0,0 -0.239688,0.04285 -0.478518,0.0629 -0.292318,0.02453 -0.605887,0.02936 -0.763288,0.0083 -0.372671,-0.04982 0.204293,-0.186882 0.204293,-0.186882 0,0 -0.0035,-2.65e-4 -0.01016,-2.65e-4 z m -0.124181,0.360562 c -0.537615,0.178429 0.299282,0.380926 1.050659,0.161142 -0.07983,-0.02814 -0.130524,-0.07964 -0.130524,-0.07964 -0.367371,0.0707 -0.579573,0.06844 -0.848355,0.0407 -0.207801,-0.02148 -0.07178,-0.122194 -0.07178,-0.122194 z m 0.07599,0.347553 c -0.488159,0.136399 0.297004,0.41814 0.918559,0.151842 -0.101799,-0.03956 -0.174815,-0.08524 -0.174815,-0.08524 -0.277174,0.0524 -0.40575,0.05652 -0.657349,0.02779 -0.207642,-0.02381 -0.0864,-0.0944 -0.0864,-0.0944 z m -0.339055,0.23043 c -0.219218,0.0068 -0.647935,0.20387 -0.255871,0.267496 1.26718,0.205399 2.309887,-0.09251 1.981237,-0.240812 0,0 0.08977,0.07402 -0.09885,0.131246 -0.358678,0.108643 -1.493147,0.14141 -1.808248,0.0043 -0.113191,-0.0493 0.09917,-0.117641 0.165986,-0.132071 0.06967,-0.01508 0.109456,-0.01233 0.109456,-0.01233 -0.01968,-0.01386 -0.05311,-0.01913 -0.0937,-0.01789 z m 1.926535,0.188379 c 0,0 -0.03994,0.102556 -0.472486,0.183927 -0.487973,0.09187 -1.089968,0.08116 -1.446876,0.02222 0,0 0.0731,0.06052 0.448814,0.0847 0.571662,0.03655 1.449766,-0.02032 1.470548,-0.290861 z"
               style="clip-rule:evenodd;display:inline;fill:#808080;fill-opacity:1;fill-rule:evenodd;stroke-width:1.01482868;enable-background:new"
               inkscape:connector-curvature="0" />
          </g>
        </g>
      </g>
      <g
         transform="translate(-472.00001,-159.99994)"
         style="display:inline"
         id="layer1" />
    </g>
  </g>
</svg>
